X: 6752
T: Chandelier, The
R: reel
M: 4/4
K: Dmajor
|:DFAF A,CEC|DFAc d2cd|Bggg gbed|cAed cAGE|
DFAF A,CEC|DFAc dced|cAA^G ABA=G|1 (3FGA EC DDDD:|2 (3FGA EC DEFA||
|:ddba afgf|eddd cABc|dAbA afgf|eddd cega|
fddd deff|ecA^G ABcA|BGGG GABF|1 AFEF DEFA:|2 AFEF DA,B,C||

